package/src/flags/sg.svg

<svg xmlns="http://www.w3.org/2000/svg" xmlns:xlink="http://www.w3.org/1999/xlink" viewBox="0 0 4320 2880">
<rect fill="#ed2939" width="4320" height="1440"/>
<rect fill="#fff" y="1440" width="4320" height="1440"/>
<path fill="#fff" d="M 1481.678,720 A 541.5,541.5 0 1 1 398.67798,720 A 541.5,541.5 0 1 1 1481.678,720 z"/>
<path fill="#ed2939" d="M 1651.835,720 A 511.73499,511.73499 0 1 1 628.36499,720 A 511.73499,511.73499 0 1 1 1651.835,720 z"/>
<path fill="#fff" id="star" d="M 1007.1951,733.06439 L 933.63466,676.63425 L 860.09279,733.09117 L 888.40587,642.09687 L 814.61147,586.0053 L 905.6704,586.1981 L 933.6049,495.07467 L 961.56934,586.18798 L 1052.6282,585.96246 L 978.8522,642.0808 L 1007.1951,733.06439 z"/>
<use xlink:href="#star" transform="translate(577.18853,0)"/>
<use xlink:href="#star" transform="translate(288.88853,-214.21117)"/>
<use xlink:href="#star" transform="translate(107.99953,342.74883)"/>
<use xlink:href="#star" transform="translate(469.18853,342.74883)"/>
</svg>

<svg xmlns="http://www.w3.org/2000/svg" xmlns:xlink="http://www.w3.org/1999/xlink" viewBox="0 0 4320 2880"><path fill="#ed2939" d="M0 0h4320v1440H0z"/><path fill="#fff" d="M0 1440h4320v1440H0zm1481.678-720a541.5 541.5 0 1 1-1083 0 541.5 541.5 0 1 1 1083 0"/><path fill="#ed2939" d="M1651.835 720a511.735 511.735 0 1 1-1023.47 0 511.735 511.735 0 1 1 1023.47 0"/><path id="flag-star" fill="#fff" d="m1007.195 733.064-73.56-56.43-73.542 56.457 28.313-90.994-73.795-56.092 91.06.193 27.934-91.123 27.964 91.113 91.06-.226-73.777 56.119z"/><use xlink:href="#flag-star" transform="translate(577.189)"/><use xlink:href="#flag-star" transform="translate(288.889 -214.211)"/><use xlink:href="#flag-star" transform="translate(108 342.749)"/><use xlink:href="#flag-star" transform="translate(469.189 342.749)"/></svg>
